X:1
T:Benedicam Dominum
T:Giovanni Croce
T:Benedicam Dominum
T:Copyright © 2015 by CPDL.  This edition can be fully distributed, duplicated, performed, and recorded. 
T:Copyright © 2015 by CPDL.  This edition can be fully distributed, duplicated, performed, and recorded. 
T:Copyright © 2015 by CPDL.  This edition can be fully distributed, duplicated, performed, and recorded. 
T:Copyright © 2015 by CPDL.  This edition can be fully distributed, duplicated, performed, and recorded. 
C:Giovanni Croce
Z:Copyright © 2015 by CPDL.  This edition can be fully distributed, duplicated, performed, and recorded.
Z:
%%score [ 1 2 3 4 ]
L:1/8
M:4/2
K:C
V:1 treble nm="SOPRANO" snm="S."
V:2 treble nm="ALTO" snm="A."
V:3 treble-8 transpose=-12 nm="TENOR" snm="T."
V:4 bass nm="BASS" snm="B."
V:1
"^Ps 34:  I will alway give thanks unto the Lord: his praise shall ever be in my mouth" z16 | z16 | %2
w: ||
 z16 | A12 A4 | G4 E4 G6 G2 | F4 D4 F4 F4 | E12 E4 | G16 | A12 A4 | G4 E4 G6 G2 | F4 F4 E8- | %11
w: |Be- ne-|di- cam- Do- mi-|num- in- om- ni-|tem- po-|re,-|be- ne-|di- cam- Do- mi-|num- in- om-|
 E4 D4 E6 E2 | E8 z4 A4 | G4 G4 F8 | E8 z4 A4 | G4 G4 F8 | E4 G4 G8- | G4 E4 E8 | E4 A4 G4 E4 | %19
w: * ni- tem- po-|re:- sem-|per- laus- e-|ius,- sem-|per- laus- e-|ius- in- o-|* re- me-|o,- in- o- re-|
 ^F8 G4 G4 | G12 =F4 | E16 | E16 |] %23
w: me- o,- in-|o- re-|me-|o.-|
V:2
 z16 | z8 E8- | E4 E4 D4 B,4 | D6 D2 C4 D4 | E4 E4 E6 E2 | A,8 z8 | z8 E8- | E4 E4 D4 B,4 | %8
w: |Be-|* ne- di- cam-|Do- mi- num- in-|om- ni- tem- po-|re,-|be-|* ne- di- cam-|
 D6 D2 C4 D4 | E4 E4 E6 E2 | A,4 D4 G,8- | G,4 A,4 C4 B,4 | A,4 A,4 C4 D4 | E8 A,8 | z4 A,4 C4 D4 | %15
w: Do- mi- num- in-|om- ni- tem- po-|re,- in- om-|* ni- tem- po-|re:- sem- per- laus-|e- ius,-|sem- per laus|
 E8 A,4 B,4 | C2 D2 E8 D4- | D4 C4 B,8 | A,4 E4 E4 E2 E2- | (E2 ^D^C D4) E4 B,4 | (=C6 D2 E4 D4-) | %21
w: e- ius in|o- * * *|* re- me-|o,- in- o- re- me-|* * * * o,- in-|o- * * *|
 D4 C4 B,8 | ^C16 |] %23
w: * re- me-|o.-|
V:3
 e12 d4 | c4 A4 c6 c2 | B12 B4 | A12 A4 | B12 c4 | d4 d8 d4 | c4 A4 c6 c2 | B12 B4 | A12 A4 | %9
w: Be- ne-|di- cam- Do- mi-|num- in-|om- ni-|tem- po-|re,- be- ne-|di- cam- Do- mi-|num- in-|om- ni-|
 B12 c4 | d4 A4 c8 | B4 A8 ^G4 | A8 z4 A4 | B4 c4 d8 | c8 z4 A4 | B4 c4 d8 | G4 c8 B4- | %17
w: tem- po-|re,- in- om-|ni- tem- po-|re:- sem-|per- laus- e-|ius,- sem-|per- laus- e-|ius- in- o-|
 B4 A4 (A4 ^G4) | A4 A4 c4 c4 | B8 B4 e4 | (e6 d2 c2 B2 A4) | (^G4 A8) G4 | A16 |] %23
w: * re- me- *|o,- in- o- re-|me- o,- in-|o- * * * *|re _ me-|o.-|
V:4
 z16 | A,12 A,4 | G,4 E,4 G,6 G,2 | F,4 D,4 F,4 F,4 | E,12 E,4 | D,16 | A,12 A,4 | %7
w: |Be- ne-|di- cam- Do- mi-|num- in- om- ni-|tem- po-|re,-|be- ne-|
 G,4 E,4 G,6 G,2 | F,4 D,4 F,4 F,4 | E,12 E,4 | D,4 D,4 (C,6 D,2 | E,4) F,4 E,6 E,2 | %12
w: di- cam- Do- mi-|num- in- om- ni-|tem- po-|re,- in- om- *|* ni- tem- po-|
 A,,4 A,4 A,4 F,4 | E,8 D,8 | z4 A,4 A,4 F,4 | E,8 D,4 D,4 | (C,6 D,2 E,2 F,2 G,4-) | G,4 A,4 E,8 | %18
w: re:- sem- per- laus-|e- ius,-|sem- per- laus-|e- ius- in-|o- * * * *|* re- me-|
 A,,8 z8 | z4 B,,4 (E,6 D,2 | C,12) D,4 | E,16 | A,,16 |] %23
w: o,-|in- o- *|* re-|me-|o.-|

